src/22/panel/indicator-keyboard-Tk.svg

<svg viewBox="0 0 22 22" xmlns="http://www.w3.org/2000/svg">
 <path style="fill:#ececec;fill-opacity:1" d="m 3 1 c -1.108 0 -2 0.892 -2 2 l 0 16 c 0 1.108 0.892 2 2 2 l 16 0 c 1.108 0 2 -0.892 2 -2 l 0 -16 c 0 -1.108 -0.892 -2 -2 -2 l -16 0 z m 10.646 4.801 l 0 5.711 c 0.192 -0.2 0.395 -0.412 0.611 -0.637 c 0.217 -0.233 0.43 -0.463 0.639 -0.688 c 0.208 -0.233 0.405 -0.454 0.588 -0.662 c 0.192 -0.217 0.353 -0.404 0.486 -0.563 l 1.787 0 c -0.417 0.467 -0.858 0.949 -1.324 1.449 c -0.458 0.5 -0.92 0.988 -1.387 1.463 c 0.25 0.208 0.512 0.462 0.787 0.762 c 0.275 0.292 0.54 0.604 0.799 0.938 c 0.258 0.333 0.502 0.667 0.727 1 c 0.225 0.333 0.413 0.642 0.563 0.926 l -1.75 0 c -0.15 -0.258 -0.325 -0.529 -0.525 -0.813 c -0.192 -0.283 -0.4 -0.558 -0.625 -0.824 c -0.225 -0.267 -0.454 -0.517 -0.688 -0.75 c -0.233 -0.242 -0.462 -0.447 -0.688 -0.613 l 0 3 l -1.514 0 l 0 -9.449 l 1.514 -0.25 z m -9.539 1.037 l 6.912 0 l 0 1.361 l -2.662 0 l 0 7.301 l -1.588 0 l 0 -7.301 l -2.662 0 l 0 -1.361 z"/>
</svg>

<svg viewBox="0 0 22 22" xmlns="http://www.w3.org/2000/svg"><path d="M3 1c-1.108 0-2 .892-2 2v16c0 1.108.892 2 2 2h16c1.108 0 2-.892 2-2V3c0-1.108-.892-2-2-2H3zm10.646 4.801v5.711l.611-.637.639-.688c.208-.233.405-.454.588-.662.192-.217.353-.404.486-.563h1.787c-.417.467-.858.949-1.324 1.449-.458.5-.92.988-1.387 1.463.25.208.512.462.787.762.275.292.54.604.799.938.258.333.502.667.727 1 .225.333.413.642.563.926h-1.75a11.18 11.18 0 0 0-.525-.813 9.757 9.757 0 0 0-.625-.824 11.662 11.662 0 0 0-.688-.75 5.433 5.433 0 0 0-.688-.613v3h-1.514V6.051l1.514-.25zM4.107 6.838h6.912v1.361H8.357V15.5H6.769V8.199H4.107V6.838z" fill="#ececec"/></svg>
